img/shape-square.svg

<svg width="22" height="23" viewBox="0 0 22 23" fill="none" xmlns="http://www.w3.org/2000/svg">
<path d="M20.0604 20C20.0604 20.542 19.6229 21 19.1051 21H2.86577C2.34802 21 1.91051 20.542 1.91051 20V3C1.91051 2.458 2.34802 2 2.86577 2H19.0172L20.5313 0.415C20.0996 0.146542 19.6073 0.00329969 19.1051 0H2.86577C1.2896 0 0 1.35 0 3V20C0 21.65 1.2896 23 2.86577 23H19.1051C20.6813 23 21.9709 21.65 21.9709 20V10.171L20.0604 12.171V20Z" fill="#4D4D4D"/>
</svg>

<?xml version="1.0" encoding="UTF-8"?>
<svg fill="none" viewBox="0 0 22 23" xmlns="http://www.w3.org/2000/svg">
<path d="m20.06 20c0 0.542-0.4375 1-0.9553 1h-16.239c-0.51775 0-0.95526-0.458-0.95526-1v-17c0-0.542 0.43751-1 0.95526-1h16.151l1.5141-1.585c-0.4317-0.26846-0.924-0.4117-1.4262-0.415h-16.239c-1.5762 0-2.8658 1.35-2.8658 3v17c0 1.65 1.2896 3 2.8658 3h16.239c1.5762 0 2.8658-1.35 2.8658-3v-9.829l-1.9105 2v7.829z" fill="#4D4D4D"/>
</svg>
